gnome-shell/src/keyboard-caps-lock-filled-symbolic.svg

<?xml version="1.0" encoding="UTF-8" standalone="no"?>
<svg
   width="16"
   height="16"
   version="1.1"
   id="svg8"
   sodipodi:docname="keyboard-caps-lock-filled-symbolic.svg"
   inkscape:version="1.1 (c68e22c387, 2021-05-23)"
   xmlns:inkscape="http://www.inkscape.org/namespaces/inkscape"
   xmlns:sodipodi="http://sodipodi.sourceforge.net/DTD/sodipodi-0.dtd"
   xmlns="http://www.w3.org/2000/svg"
   xmlns:svg="http://www.w3.org/2000/svg">
  <defs
     id="defs12" />
  <sodipodi:namedview
     id="namedview10"
     pagecolor="#ffffff"
     bordercolor="#666666"
     borderopacity="1.0"
     inkscape:pageshadow="2"
     inkscape:pageopacity="0.0"
     inkscape:pagecheckerboard="0"
     showgrid="true"
     inkscape:zoom="47.022601"
     inkscape:cx="3.7641474"
     inkscape:cy="11.409407"
     inkscape:window-width="1366"
     inkscape:window-height="704"
     inkscape:window-x="0"
     inkscape:window-y="27"
     inkscape:window-maximized="1"
     inkscape:current-layer="svg8">
    <inkscape:grid
       type="xygrid"
       id="grid188" />
  </sodipodi:namedview>
  <g
     id="g215"
     transform="matrix(1.1764706,0,0,1.1764706,-392.05883,-562.88236)"
     style="fill:#808080;fill-opacity:1">
    <path
       id="path2"
       style="font-variant-ligatures:normal;font-variant-position:normal;font-variant-caps:normal;font-variant-numeric:normal;font-variant-alternates:normal;font-feature-settings:normal;text-indent:0;text-decoration-line:none;text-decoration-style:solid;text-decoration-color:#000000;text-transform:none;text-orientation:mixed;white-space:normal;shape-padding:0;isolation:auto;mix-blend-mode:normal;stroke-width:1.17647;fill:#808080;fill-opacity:1"
       d="M 7.9414062 3 C 7.4022533 3.8529412 6.877929 4.6440294 6.3710938 5.5625 C 5.8655055 6.4897706 5.4089882 7.400216 5 8.2949219 L 6.765625 8.2949219 L 6.765625 10 L 9.1171875 10 L 9.1171875 8.2949219 L 10.882812 8.296875 C 10.462895 7.4017764 10.000023 6.4902647 9.4941406 5.5625 C 8.9873406 4.6438765 8.4697592 3.8529412 7.9414062 3 z M 6.765625 11 L 6.765625 13 L 9.1171875 12.998047 L 9.1171875 11 L 6.765625 11 z "
       transform="matrix(0.84999999,0,0,0.84999999,333.25,478.45)" />
  </g>
</svg>

<svg version="1.1" viewBox="0 0 16 16" xmlns="http://www.w3.org/2000/svg">
 <g transform="matrix(1.1765 0 0 1.1765 -392.06 -562.88)" fill="#808080">
  <path transform="matrix(.85 0 0 .85 333.25 478.45)" d="m7.9414 3c-0.53915 0.85294-1.0635 1.644-1.5703 2.5625-0.50559 0.92727-0.96211 1.8377-1.3711 2.7324h1.7656v1.7051h2.3516v-1.7051l1.7656 0.0019531c-0.41992-0.8951-0.88279-1.8066-1.3887-2.7344-0.5068-0.91862-1.0244-1.7096-1.5527-2.5625zm-1.1758 8v2l2.3516-0.001953v-1.998h-2.3516z" fill="#808080" stroke-width="1.1765" style="font-feature-settings:normal;font-variant-alternates:normal;font-variant-caps:normal;font-variant-ligatures:normal;font-variant-numeric:normal;font-variant-position:normal;isolation:auto;mix-blend-mode:normal;shape-padding:0;text-decoration-color:#000000;text-decoration-line:none;text-decoration-style:solid;text-indent:0;text-orientation:mixed;text-transform:none;white-space:normal"/>
 </g>
</svg>
